static/assets/template/assets/img/icons/essential/detailed/Presentation.svg

<svg height="149" viewBox="0 0 138 149" width="138" xmlns="http://www.w3.org/2000/svg"><g fill="none" fill-rule="evenodd" transform="translate(2 2)"><path d="m67.1 137.3v-24.3" stroke-linecap="round" stroke-linejoin="round" stroke-width="3"/><path d="m106.4 117.2h-78.4c-10 0-18.1-8.1-18.1-18.1v-85.3h114.6v85.3c-.1 10-8.2 18.1-18.1 18.1z" fill-rule="nonzero"/><path d="m124.4 13v85.3c0 10-8.1 18.1-18.1 18.1h-78.4c-10 0-18.1-8.1-18.1-18.1v-85.3z" fill-rule="nonzero"/><path d="m9.9 13h114.6v10.6h-114.6z" fill-rule="nonzero"/><path d="m9.9 29.2v-.4" stroke-linecap="round" stroke-linejoin="round" stroke-width="3"/><path d="m9.9 16.4v-2.5h114.6v85.3c0 10-8.1 18.1-18.1 18.1h-78.4c-10 0-18.1-8.1-18.1-18.1v-62.2" stroke-linecap="round" stroke-linejoin="round" stroke-width="3"/><path d="m125.8 17.3h-117.2c-4.7 0-8.6-3.8-8.6-8.6 0-4.7 3.8-8.6 8.6-8.6h117.2c4.7 0 8.6 3.8 8.6 8.6-.1 4.7-3.9 8.6-8.6 8.6z" fill-rule="nonzero"/><path d="m128.6 16.4h-118.1c-3.2 0-5.7-2.6-5.7-5.7v-.2c0-3.2 2.6-5.7 5.7-5.7h118.1c3.2 0 5.7 2.6 5.7 5.7v.2c0 3.2-2.5 5.7-5.7 5.7z" fill-rule="nonzero"/><path d="m42 .2h83.8c4.7 0 8.6 3.8 8.6 8.6 0 4.7-3.8 8.6-8.6 8.6h-117.2c-4.7 0-8.6-3.8-8.6-8.6 0-4.7 3.8-8.6 8.6-8.6h9.8" stroke-linecap="round" stroke-linejoin="round" stroke-width="3"/><path d="m24.4.2h.3" stroke-linecap="round" stroke-linejoin="round" stroke-width="3"/><circle cx="67.1" cy="139.6" fill-rule="nonzero" r="5.7" stroke-linecap="round" stroke-linejoin="round" stroke-width="3"/><path d="m64.3 41.6c-14.4.1-26.1 11.8-26.1 26.3s11.8 26.3 26.3 26.3c14.4 0 26.2-11.6 26.3-26.1h-26.5z" fill-rule="nonzero"/><path d="m72.5 33.6c-.1 0-.1 0-.2 0v26.5h26.5c0-.1 0-.1 0-.2 0-14.5-11.8-26.3-26.3-26.3z" fill-rule="nonzero"/><g stroke-linecap="round" stroke-linejoin="round" stroke-width="3"><path d="m50.7 45.5c-.2.1-.4.3-.6.4"/><path d="m75.8 68.1h-11.5v-26.5c-1.7 0-3.3.2-4.8.5"/><path d="m45.6 49.6c-4.5 4.7-7.3 11.1-7.3 18.2 0 14.5 11.8 26.3 26.3 26.3 14.4 0 26.2-11.6 26.3-26.1h-7.9"/><path d="m94.7 45.8c-4.7-7.3-12.9-12.2-22.2-12.2-.1 0-.1 0-.2 0v26.5h26.5c0-.1 0-.1 0-.2 0-.8 0-1.5-.1-2.2"/></g></g></svg>

<?xml version="1.0" encoding="UTF-8"?>
<svg width="138px" height="149px" viewBox="0 0 138 149" version="1.1" xmlns="http://www.w3.org/2000/svg" xmlns:xlink="http://www.w3.org/1999/xlink">
    <!-- Generator: Sketch 51.2 (57519) - http://www.bohemiancoding.com/sketch -->
    <title>Presentation</title>
    <desc>Created with Sketch.</desc>
    <defs></defs>
    <g id="Page-1" stroke="none" stroke-width="1" fill="none" fill-rule="evenodd">
        <g id="Presentation" transform="translate(2.000000, 2.000000)">
            <path d="M67.1,137.3 L67.1,113" id="Shape" class="stroke-primary" stroke-width="3" stroke-linecap="round" stroke-linejoin="round"></path>
            <path d="M106.4,117.2 L28,117.2 C18,117.2 9.9,109.1 9.9,99.1 L9.9,13.8 L124.5,13.8 L124.5,99.1 C124.4,109.1 116.3,117.2 106.4,117.2 Z" id="Shape" class="fill-neutral" fill-rule="nonzero"></path>
            <path d="M124.4,13 L124.4,98.3 C124.4,108.3 116.3,116.4 106.3,116.4 L27.9,116.4 C17.9,116.4 9.8,108.3 9.8,98.3 L9.8,13 L124.4,13 Z" id="Shape" class="fill-neutral" fill-rule="nonzero"></path>
            <rect id="Rectangle-path" class="fill-primary-100" fill-rule="nonzero" x="9.9" y="13" width="114.6" height="10.6"></rect>
            <path d="M9.9,29.2 L9.9,28.8" id="Shape" class="stroke-primary" stroke-width="3" stroke-linecap="round" stroke-linejoin="round"></path>
            <path d="M9.9,16.4 L9.9,13.9 L124.5,13.9 L124.5,99.2 C124.5,109.2 116.4,117.3 106.4,117.3 L28,117.3 C18,117.3 9.9,109.2 9.9,99.2 L9.9,37" id="Shape" class="stroke-primary" stroke-width="3" stroke-linecap="round" stroke-linejoin="round"></path>
            <path d="M125.8,17.3 L8.6,17.3 C3.9,17.3 4.54747351e-13,13.5 4.54747351e-13,8.7 C4.54747351e-13,4 3.8,0.1 8.6,0.1 L125.8,0.1 C130.5,0.1 134.4,3.9 134.4,8.7 C134.3,13.4 130.5,17.3 125.8,17.3 Z" id="Shape" class="fill-neutral" fill-rule="nonzero"></path>
            <path d="M128.6,16.4 L10.5,16.4 C7.3,16.4 4.8,13.8 4.8,10.7 L4.8,10.5 C4.8,7.3 7.4,4.8 10.5,4.8 L128.6,4.8 C131.8,4.8 134.3,7.4 134.3,10.5 L134.3,10.7 C134.3,13.9 131.8,16.4 128.6,16.4 Z" id="Shape" class="fill-primary-500" fill-rule="nonzero"></path>
            <path d="M42,0.2 L125.8,0.2 C130.5,0.2 134.4,4 134.4,8.8 C134.4,13.5 130.6,17.4 125.8,17.4 L8.6,17.4 C3.9,17.4 4.54747351e-13,13.6 4.54747351e-13,8.8 C4.54747351e-13,4.1 3.8,0.2 8.6,0.2 L18.4,0.2" id="Shape" class="stroke-primary" stroke-width="3" stroke-linecap="round" stroke-linejoin="round"></path>
            <path d="M24.4,0.2 L24.7,0.2" id="Shape" class="stroke-primary" stroke-width="3" stroke-linecap="round" stroke-linejoin="round"></path>
            <circle id="Oval" stroke-width="3" class="stroke-primary fill-primary-500" fill-rule="nonzero" stroke-linecap="round" stroke-linejoin="round" cx="67.1" cy="139.6" r="5.7"></circle>
            <path d="M64.3,41.6 C49.9,41.7 38.2,53.4 38.2,67.9 C38.2,82.4 50,94.2 64.5,94.2 C78.9,94.2 90.7,82.6 90.8,68.1 L64.3,68.1 L64.3,41.6 Z" id="Shape" class="fill-primary-100" fill-rule="nonzero"></path>
            <path d="M72.5,33.6 C72.4,33.6 72.4,33.6 72.3,33.6 L72.3,60.1 L98.8,60.1 C98.8,60 98.8,60 98.8,59.9 C98.8,45.4 87,33.6 72.5,33.6 Z" id="Shape" class="fill-primary-500" fill-rule="nonzero"></path>
            <path d="M50.7,45.5 C50.5,45.6 50.3,45.8 50.1,45.9" id="Shape" class="stroke-primary" stroke-width="3" stroke-linecap="round" stroke-linejoin="round"></path>
            <path d="M75.8,68.1 L64.3,68.1 L64.3,41.6 C62.6,41.6 61,41.8 59.5,42.1" id="Shape" class="stroke-primary" stroke-width="3" stroke-linecap="round" stroke-linejoin="round"></path>
            <path d="M45.6,49.6 C41.1,54.3 38.3,60.7 38.3,67.8 C38.3,82.3 50.1,94.1 64.6,94.1 C79,94.1 90.8,82.5 90.9,68 L83,68" id="Shape" class="stroke-primary" stroke-width="3" stroke-linecap="round" stroke-linejoin="round"></path>
            <path d="M94.7,45.8 C90,38.5 81.8,33.6 72.5,33.6 C72.4,33.6 72.4,33.6 72.3,33.6 L72.3,60.1 L98.8,60.1 C98.8,60 98.8,60 98.8,59.9 C98.8,59.1 98.8,58.4 98.7,57.7" id="Shape" class="stroke-primary" stroke-width="3" stroke-linecap="round" stroke-linejoin="round"></path>
        </g>
    </g>
</svg>
